img/parceiros/ranek.svg

<svg width="149" height="36" viewBox="0 0 149 36" fill="none" xmlns="http://www.w3.org/2000/svg">
<path d="M48.9525 35.52V0H39.9159L21.0211 27.408L17.8317 23.424C23.5339 22.56 26.7234 17.568 26.7234 12.24C26.7234 7.152 23.9205 2.88 20.1512 1.248C18.2666 0.432 15.4638 0 11.7428 0H0V35.52H8.7467V24.048H8.84335L17.1068 35.52H26.3368L29.4778 30.384H39.8192V35.52H48.9525ZM8.7467 17.856V7.968H12.2261C15.6571 7.968 17.9767 9.696 17.9767 12.768C17.9767 16.032 15.8021 17.856 12.1777 17.856H8.7467ZM39.8192 23.184H33.827L39.7226 13.344H39.8192V23.184ZM85.6045 35.52V0H76.8578L77.2444 22.464L63.327 0H55.4501V35.52H64.1969L63.9552 13.824L77.6793 35.52H85.6045ZM111.98 35.52V27.552H100.865V21.456H111.641V13.488H100.865V7.968H111.98V0H92.1182V35.52H111.98ZM148.285 35.52L135.673 17.712L147.512 0H137.944L127.844 15.984H127.747V0H118.614V35.52H127.747V20.16H127.844L137.606 35.52H148.285Z" fill="#9C9C9C"/>
</svg>

<svg width="149" height="36" fill="none" xmlns="http://www.w3.org/2000/svg">
  <path d="M48.953 35.52V0h-9.037L21.02 27.408l-3.19-3.984c5.703-.864 8.892-5.856 8.892-11.184 0-5.088-2.802-9.36-6.572-10.992C18.267.432 15.464 0 11.743 0H0v35.52h8.747V24.048h.096l8.264 11.472h9.23l3.14-5.136H39.82v5.136h9.133ZM8.746 17.856V7.968h3.48c3.43 0 5.75 1.728 5.75 4.8 0 3.264-2.175 5.088-5.8 5.088h-3.43Zm31.072 5.328h-5.992l5.896-9.84h.096v9.84ZM85.604 35.52V0h-8.746l.386 22.464L63.327 0H55.45v35.52h8.747l-.242-21.696L77.68 35.52h7.925Zm26.376 0v-7.968h-11.115v-6.096h10.776v-7.968h-10.776v-5.52h11.115V0H92.118v35.52h19.862Zm36.305 0-12.612-17.808L147.512 0h-9.568l-10.1 15.984h-.097V0h-9.133v35.52h9.133V20.16h.097l9.762 15.36h10.679Z" fill="#9C9C9C"/>
</svg>
